app/dist/common/images/teekay-tankers-ltd.svg

<svg height="18" width="18" xmlns="http://www.w3.org/2000/svg"><path d="m0 0h18v18h-18z" fill="#f0f3fa"/><path d="m5 13v-5h-2v-3h7.93l-1.97 3h-.3v1l2.62-4h3.53l-2.36 3.5 2.55 4.5h-3.55l-.97-1.5-.98 1.5z" fill="#002f87"/><path d="m11.63 5.49-3.63 5.41v-3.4h.6l1.34-2.02h-6.38v2.02h2.12v5h3.4l1.35-2.12 1.47 2.11h2.25l-2.25-4 2-3.01h-2.27z" fill="#c3002f"/></svg>

<!-- by TradingView --><svg xmlns="http://www.w3.org/2000/svg" width="18" height="18"><path fill="#F0F3FA" d="M0 0h18v18H0z"/><path d="M5 13V8H3V5h7.93L8.96 8h-.3v1l2.62-4h3.53l-2.36 3.5L15 13h-3.55l-.97-1.5L9.5 13H5z" fill="#002F87"/><path d="M11.63 5.49L8 10.9V7.5h.6l1.34-2.02H3.56V7.5h2.12v5h3.4l1.35-2.12 1.47 2.11h2.25l-2.25-4 2-3.01h-2.27z" fill="#C3002F"/></svg>
